raws/icons/decors/home-icon.svg

<svg width="18" height="20" viewBox="0 0 18 20" fill="none" xmlns="http://www.w3.org/2000/svg">
<path d="M7.83654 2.29244L2.71635 5.17706C2.34776 5.38539 2.05929 5.66584 1.85096 6.0184C1.64263 6.37097 1.53846 6.75558 1.53846 7.17225V16.1626C1.53846 16.7876 1.76282 17.3285 2.21154 17.7852C2.66026 18.242 3.20513 18.4703 3.84615 18.4703H5.12019V13.0857C5.12019 12.3005 5.39663 11.6314 5.94952 11.0785C6.5024 10.5256 7.16346 10.2492 7.93269 10.2492H10C10.7692 10.2492 11.4303 10.5256 11.9832 11.0785C12.5361 11.6314 12.8125 12.3005 12.8125 13.0857V18.4703H14.0865C14.7276 18.4703 15.2724 18.242 15.7212 17.7852C16.1699 17.3285 16.3942 16.7876 16.3942 16.1626V7.17225C16.3942 6.75558 16.2901 6.37097 16.0817 6.0184C15.8734 5.66584 15.5849 5.38539 15.2163 5.17706L10.0962 2.29244C9.74359 2.08411 9.36699 1.97994 8.96635 1.97994C8.5657 1.97994 8.1891 2.08411 7.83654 2.29244ZM11.274 18.4703V13.0857C11.274 12.7171 11.1498 12.4086 10.9014 12.1602C10.653 11.9118 10.3526 11.7876 10 11.7876H7.93269C7.58013 11.7876 7.27965 11.9118 7.03125 12.1602C6.78285 12.4086 6.65865 12.7171 6.65865 13.0857V18.4703H11.274ZM5.12019 20.0088H3.84615C2.77244 20.0088 1.86298 19.6322 1.11779 18.879C0.372596 18.1258 0 17.2203 0 16.1626V7.17225C0 6.48315 0.172276 5.83812 0.516827 5.23715C0.861378 4.63619 1.33814 4.16744 1.94712 3.8309L7.09135 0.946289C7.66827 0.609751 8.29327 0.441481 8.96635 0.441481C9.63942 0.441481 10.2644 0.609751 10.8413 0.946289L15.9856 3.8309C16.5946 4.16744 17.0713 4.63619 17.4159 5.23715C17.7604 5.83812 17.9327 6.48315 17.9327 7.17225V16.1626C17.9327 17.2203 17.5601 18.1258 16.8149 18.879C16.0697 19.6322 15.1603 20.0088 14.0865 20.0088H5.12019Z" fill="white"/>
</svg>

<svg width="18" height="20" fill="none" xmlns="http://www.w3.org/2000/svg"><path d="M7.837 2.292l-5.12 2.885a2.297 2.297 0 00-.866.841 2.227 2.227 0 00-.313 1.154v8.99c0 .626.225 1.166.674 1.623.448.457.993.685 1.634.685H5.12v-5.384c0-.786.277-1.455.83-2.008a2.706 2.706 0 011.983-.829H10c.77 0 1.43.277 1.983.83.553.552.83 1.221.83 2.007v5.384h1.273c.642 0 1.186-.228 1.635-.685.449-.457.673-.997.673-1.622v-8.99c0-.417-.104-.802-.312-1.155a2.297 2.297 0 00-.866-.84l-5.12-2.886a2.185 2.185 0 00-1.13-.312c-.4 0-.777.104-1.13.312zm3.437 16.178v-5.384c0-.369-.124-.677-.373-.926a1.228 1.228 0 00-.901-.372H7.933c-.353 0-.653.124-.902.372a1.257 1.257 0 00-.372.926v5.384h4.615zM5.12 20.01H3.846c-1.074 0-1.983-.377-2.728-1.13A3.724 3.724 0 010 16.163v-8.99c0-.69.172-1.335.517-1.936a3.656 3.656 0 011.43-1.406L7.091.946A3.657 3.657 0 018.966.441c.673 0 1.298.169 1.875.505l5.145 2.885a3.657 3.657 0 011.43 1.406c.344.601.517 1.246.517 1.935v8.99a3.724 3.724 0 01-1.118 2.717c-.745.753-1.655 1.13-2.729 1.13H5.12z" fill="#fff"/></svg>
